X: 1
T: Verret's
R:Reel
C:
B:
L:1/8
M:C|
K:D
%%staffsep 45
de |\
"D"fedf "Bbdim/Bb"edBc | "Bm"dB (3BBB "G"BAFD | "D"A,DFA "D#dim"cBAG | "Em7"FAde "A"fede |
"D"fedf "Bbdim/Bb"edBc | "Bm"dB (3BBB "G"BAFD | "D"A,DFA "Em7"cBAG | "A"FDEF "D"D2 :|
|: AG |\
"D"FDA,D FDDF | "C"E=CEG B2 AG | "D"FDAD FAAA | "G"BA"A"cA "D"d2 AG |
"D"FDA,D FDDF | "C"E=CEG B2 AG | "D"FAdf "Em7"edce | "A"dfec "D"d2 :|

%%sep 1 1 500

